!!!!SEGMENT: pl-cz--iii-456--003_kuci-mateusz--symfonia-d-menuetto.krn
!!!cenid: 17xx:231
!!!COM: Kuci, Mateusz
!!!COM-rismID: pe30017582
!!!CDT:
!!!CNT:
!!!OPR: Symfonia D
!!!OTL: Menuetto
!!!OMV: 003
!!!PDT:
!!!AGN: Secular
!!!SMS-siglum: PL-CZ
!!!SMS-shelfmark: III-456
!!!SMS-shelfwork: 001-003 M
!!!NIFC-rismSourceID:
!!!NIFC-islandoraID: pl-cz:38551
!!!URL-pdf-islandora: https://repozytorium.nifc.pl/islandora/object/pl-cz%3A38551/datastream/PDF/view
!!!URL-scan:
!!!ONB-nifc:
!!!AIN: 3 empty 2 oboe 1 viola 2 violn
!!!key:
**kern	**dynam	**kern	**dynam	**kern	**dynam	**kern	**dynam	**kern	**dynam	**kern	**dynam	**kern	**dynam	**kern	**dynam
*part8	*part8	*part7	*part7	*part6	*part6	*part5	*part5	*part4	*part4	*part3	*part3	*part2	*part2	*part1	*part1
*staff8	*	*staff7	*	*staff6	*	*staff5	*	*staff4	*	*staff3	*	*staff2	*	*staff1	*
*group3	*	*group3	*	*group3	*	*group3	*	*group2	*	*group2	*	*group1	*	*group1	*
*Iempty	*	*Iviola	*	*Ivioln	*	*Ivioln	*	*Iempty	*	*Iempty	*	*Ioboe	*	*Ioboe	*
*I"Baſso	*	*I"Viola	*	*I"Violino Secondo	*	*I"Violino Primo	*	*I"Cornu Secondo Toni D#	*	*I"Cornu Primo Toni D#	*	*I"Oboe Secondo	*	*I"Oboe Primo	*
*I'B	*	*I'Vla	*	*I'Vn II	*	*I'Vn I	*	*I'Cor II	*	*I'Cor I	*	*I'Ob II	*	*I'Ob I	*
*clefF4	*	*clefC3	*	*clefG2	*	*clefG2	*	*clefG2	*	*clefG2	*	*clefG2	*	*clefG2	*
*	*	*	*	*	*	*	*	*ITrd-1c-2	*	*ITrd-1c-2	*	*	*	*	*
*k[f#c#]	*	*k[f#c#]	*	*k[f#c#]	*	*k[f#c#]	*	*k[f#c#]	*	*k[f#c#]	*	*k[f#c#]	*	*k[f#c#]	*
*D:	*	*D:	*	*D:	*	*D:	*	*	*	*	*	*D:	*	*D:	*
*M3/4	*	*M3/4	*	*M3/4	*	*M3/4	*	*M3/4	*	*M3/4	*	*M3/4	*	*M3/4	*
*>[AABBCCDD]	*[AABBCCDD]	*	*[AABBCCDD]	*	*[AABBCCDD]	*	*[AABBCCDD]	*	*[AABBCCDD]	*	*[AABBCCDD]	*	*[AABBCCDD]	*	*
=1	=1	=1	=1	=1	=1	=1	=1	=1	=1	=1	=1	=1	=1	=1	=1
*>A	*	*>A	*	*>A	*	*>A	*	*>A	*	*>A	*	*>A	*	*>A	*
!	!	!	!	!	!	!LO:TX:a:B:t=Menuetto	!	!LO:TX:a:B:t=Menuetto in D.	!	!LO:TX:a:B:t=Menuetto Toni D#.	!	!	!	!	!
!LO:TX:a:B:t=Menuetto	!	!LO:TX:a:B:t=Menuetto	!	!LO:TX:a:B:t=Menuetto	!	!	!	!	!	!	!	!LO:TX:a:B:t=Menuetto	!	!LO:TX:a:B:t=Menuetto	!
4r	.	4r	.	4r	.	16aa\LL	.	4r	.	4r	.	4r	.	4r	.
.	.	.	.	.	.	16gg\	.	.	.	.	.	.	.	.	.
.	.	.	.	.	.	16ff#\	.	.	.	.	.	.	.	.	.
.	.	.	.	.	.	16ee\JJ	.	.	.	.	.	.	.	.	.
4D\	.	4f#`\	.	(16a/LL	.	4dd\	.	4d/	.	4dd\	.	4f#/	f	4dd\	.
.	.	.	.	16g/	.	.	.	.	.	.	.	.	.	.	.
.	.	.	.	16f#/	.	.	.	.	.	.	.	.	.	.	.
.	.	.	.	16e/JJ)	.	.	.	.	.	.	.	.	.	.	.
4F#\	.	4d`\	.	4d/	.	4dd\	.	4d/	.	4dd\	.	4f#/	.	4dd\	.
=2	=2	=2	=2	=2	=2	=2	=2	=2	=2	=2	=2	=2	=2	=2	=2
*	*	*	*	*	*	*2\right	*	*	*	*	*	*	*	*2\right	*
.	.	.	.	.	.	8qqee/	.	.	.	.	.	8qqg/	.	8qqee/	.
4A\	.	4r	.	(8f#/L	.	8dd\L	.	4A/	.	4r	.	8f#/L	.	8dd\L	.
.	.	.	.	8e/J)	.	8cc#X\J	.	.	.	.	.	8e/J	.	8cc#\J	.
4E\	.	(16e\LL	.	2e/	.	2cc#\	.	4A/	.	4a/	.	2e/	.	2cc#\	.
.	.	16d\	.	.	.	.	.	.	.	.	.	.	.	.	.
.	.	16c#\	.	.	.	.	.	.	.	.	.	.	.	.	.
.	.	16B\JJ	.	.	.	.	.	.	.	.	.	.	.	.	.
4AA/	.	4A\)	.	.	.	.	.	4r	.	4a/	.	.	.	.	.
=3	=3	=3	=3	=3	=3	=3	=3	=3	=3	=3	=3	=3	=3	=3	=3
4r	.	4r	.	4r	.	(16ee\LL	.	4r	.	4r	.	4r	.	4r	.
.	.	.	.	.	.	16dd\	.	.	.	.	.	.	.	.	.
.	.	.	.	.	.	16cc#\	.	.	.	.	.	.	.	.	.
.	.	.	.	.	.	16b\JJ)	.	.	.	.	.	.	.	.	.
(16E/LL	.	4A/	.	8e/L	.	4a/	.	4A/	.	4a/	.	4ee\	.	4gg\	.
16D/	.	.	.	.	.	.	.	.	.	.	.	.	.	.	.
16C#/	.	.	.	8a/	.	.	.	.	.	.	.	.	.	.	.
16BB/JJ)	.	.	.	.	.	.	.	.	.	.	.	.	.	.	.
4AA`/	.	4a\	.	8cc#/	.	4gg\	.	4A/	.	4a/	.	4ee\	.	4gg\	.
.	.	.	.	8ee/J	.	.	.	.	.	.	.	.	.	.	.
=4	=4	=4	=4	=4	=4	=4	=4	=4	=4	=4	=4	=4	=4	=4	=4
*	*	*	*	*2\right	*	*	*	*	*	*2\right	*	*2\right	*	*	*
.	.	.	.	8qqff#/	.	8qqaa/	.	.	.	.	.	8qqff#/	.	8qqaa/	.
4D/	.	4r	.	8ee\L	.	8gg\L	.	2.d/	.	2.dd\	.	8ee\L	.	8gg\L	.
.	.	.	.	8dd\J	.	8ff#\J	.	.	.	.	.	8dd\J	.	8ff#\J	.
4AA/	.	16a\LL	.	2dd\	.	2ff#\	.	.	.	.	.	2dd\	.	2ff#\	.
.	.	16g\	.	.	.	.	.	.	.	.	.	.	.	.	.
.	.	16f#\	.	.	.	.	.	.	.	.	.	.	.	.	.
.	.	16e\JJ	.	.	.	.	.	.	.	.	.	.	.	.	.
4DD/	.	4d\	.	.	.	.	.	.	.	.	.	.	.	.	.
=5	=5	=5	=5	=5	=5	=5	=5	=5	=5	=5	=5	=5	=5	=5	=5
4r	.	4r	.	4r	.	16aa\LL	.	4r	.	4r	.	4r	.	4r	.
.	.	.	.	.	.	16gg\	.	.	.	.	.	.	.	.	.
.	.	.	.	.	.	16ff#\	.	.	.	.	.	.	.	.	.
.	.	.	.	.	.	16ee\JJ	.	.	.	.	.	.	.	.	.
4D\	.	4f#\	.	(16a/LL	.	4dd\	.	4d/	.	4dd\	.	4dd\	.	4ff#\	.
.	.	.	.	16g/	.	.	.	.	.	.	.	.	.	.	.
.	.	.	.	16f#/	.	.	.	.	.	.	.	.	.	.	.
.	.	.	.	16e/JJ)	.	.	.	.	.	.	.	.	.	.	.
4d\	.	4d\	.	4d`/	.	4dd\	.	4d/	.	4dd\	.	4dd\	.	4ff#\	.
=6	=6	=6	=6	=6	=6	=6	=6	=6	=6	=6	=6	=6	=6	=6	=6
4r	.	4r	.	4r	.	16ddd\LL	.	4r	.	4r	.	4r	.	4r	.
.	.	.	.	.	.	16ccc#\	.	.	.	.	.	.	.	.	.
.	.	.	.	.	.	16bb\	.	.	.	.	.	.	.	.	.
.	.	.	.	.	.	16aa\JJ	.	.	.	.	.	.	.	.	.
4E\	.	4B/	.	(16dd\LL	.	4gg#X\	.	4ee\	.	4ee\	.	4dd\	.	4gg#X\	.
.	.	.	.	16cc#\	.	.	.	.	.	.	.	.	.	.	.
.	.	.	.	16b\	.	.	.	.	.	.	.	.	.	.	.
.	.	.	.	16a\JJ)	.	.	.	.	.	.	.	.	.	.	.
4EE/	.	4B/	.	4g#X`/	.	4gg#\	.	4ee\	.	4ee\	.	4dd\	.	4gg#\	.
!	!	!	!	!LO:LB:g=original	!	!LO:LB:g=original	!	!	!	!	!	!	!	!	!
=7	=7	=7	=7	=7	=7	=7	=7	=7	=7	=7	=7	=7	=7	=7	=7
4AA/	.	4A/	.	(8cc#\L	.	8aa\L	.	4r	.	4r	.	(8cc#\L	.	8aa\L	.
.	.	.	.	8ee\	.	8ccc#\	.	.	.	.	.	8ee\)	.	8ccc#X\	.
4E\	.	4r	.	8dd\	.	8bb\	.	4ee\	.	4ee\	.	8dd'\	.	8bb\	.
.	.	.	.	8cc#\	.	8aa\	.	.	.	.	.	8cc#'\	.	8aa\	.
4EE/	.	4e\	.	8dd\	.	8bb\	.	4ee\	.	4ee\	.	(8dd\	.	8ddd\	.
.	.	.	.	8b\J)	.	8gg#X\J	.	.	.	.	.	8b\J)	.	8gg#X\J	.
!LO:LB:g=original	!	!LO:LB:g=original	!	!	!	!	!	!	!	!	!	!LO:LB:g=original	!	!LO:LB:g=original	!
=8	=8	=8	=8	=8	=8	=8	=8	=8	=8	=8	=8	=8	=8	=8	=8
*	*	*2\right	*	*	*	*	*	*	*	*	*	*	*	*	*
!	!	!	!	!	!	!LO:TX:a:t=SIC&colon;s=2gg#	!	!	!	!	!	!	!	!	!
4AA/	.	2e\	.	2e/ 2b	.	2gg\	.	2.a/	.	2.ee\	.	2b\	.	2gg#X\	.
(16E\LL	.	.	.	.	.	.	.	.	.	.	.	.	.	.	.
16D\	.	.	.	.	.	.	.	.	.	.	.	.	.	.	.
16C#\	.	.	.	.	.	.	.	.	.	.	.	.	.	.	.
16BB\JJ)	.	.	.	.	.	.	.	.	.	.	.	.	.	.	.
4AA`/	.	4A/	.	4cc#\	.	4aa\	.	.	.	.	.	4cc#\	.	4aa\	.
=9:|!|:	=9:|!|:	=9:|!|:	=9:|!|:	=9:|!|:	=9:|!|:	=9:|!|:	=9:|!|:	=9:|!|:	=9:|!|:	=9:|!|:	=9:|!|:	=9:|!|:	=9:|!|:	=9:|!|:	=9:|!|:
*>B	*	*>B	*	*>B	*	*>B	*	*>B	*	*>B	*	*>B	*	*>B	*
4r	.	4r	.	4r	.	(16ee\LL	.	4r	.	4r	.	4r	.	4r	.
.	.	.	.	.	.	16dd\	.	.	.	.	.	.	.	.	.
.	.	.	.	.	.	16cc#\	.	.	.	.	.	.	.	.	.
.	.	.	.	.	.	16b\JJ)	.	.	.	.	.	.	.	.	.
4C#/	.	4e\	.	(16e/LL	.	4a`/	.	4ee\	.	4ee/	.	4cc#\	.	4aa\	.
.	.	.	.	16d/	.	.	.	.	.	.	.	.	.	.	.
.	.	.	.	16c#/	.	.	.	.	.	.	.	.	.	.	.
.	.	.	.	16B/JJ)	.	.	.	.	.	.	.	.	.	.	.
4AA/	.	4e\	.	4A/	.	4aa\	.	4ee\	.	4ee/	.	4cc#\	.	4aa\	.
!	!	!	!	!	!	!	!	!LO:LB:g=original	!	!LO:LB:g=original	!	!	!	!	!
=10	=10	=10	=10	=10	=10	=10	=10	=10	=10	=10	=10	=10	=10	=10	=10
*2\right	*	*	*	*	*	*	*	*2\right	*	*	*	*	*	*	*
2.E\	.	4e\	.	(8cc#\L	.	8aa\L	.	2.ee\	.	2.ee\	.	(8cc#\L	.	8aa\L	.
.	.	.	.	8b\J)	.	8gg#X\J	.	.	.	.	.	8b\J)	.	8gg#X\J	.
.	.	(16B/LL	.	2b\	.	2gg#\	.	.	.	.	.	2b\	.	2gg#\	.
.	.	16A/	.	.	.	.	.	.	.	.	.	.	.	.	.
.	.	16G#X/	.	.	.	.	.	.	.	.	.	.	.	.	.
.	.	16F#/JJ)	.	.	.	.	.	.	.	.	.	.	.	.	.
.	.	4E/	.	.	.	.	.	.	.	.	.	.	.	.	.
=11	=11	=11	=11	=11	=11	=11	=11	=11	=11	=11	=11	=11	=11	=11	=11
4r	.	4r	.	4r	.	(16ggn\LL	.	4r	.	4r	.	4r	.	4r	.
.	.	.	.	.	.	16ff#\	.	.	.	.	.	.	.	.	.
.	.	.	.	.	.	16ee\	.	.	.	.	.	.	.	.	.
.	.	.	.	.	.	16dd\JJ)	.	.	.	.	.	.	.	.	.
4c#\	.	4e\	.	16gn/LL	.	4cc#`\	.	4aa\	.	4aa\	.	4ee\	.	4ggn\	.
.	.	.	.	16f#/	.	.	.	.	.	.	.	.	.	.	.
.	.	.	.	16e/	.	.	.	.	.	.	.	.	.	.	.
.	.	.	.	16d/JJ	.	.	.	.	.	.	.	.	.	.	.
4A\	.	4A/	.	4c#X/	.	4ggn\	.	4aa\	.	4aa\	.	4ee\	.	4gg\	.
=12	=12	=12	=12	=12	=12	=12	=12	=12	=12	=12	=12	=12	=12	=12	=12
.	.	.	.	8qqff#/	.	8qqaa/	.	.	.	.	.	8qqff#/	.	8qqaa/	.
4d\	.	2A/	.	8ee\L	.	8gg\L	.	2.aa\	.	2.aa\	.	8ee\L	.	8gg\L	.
.	.	.	.	8dd\J	.	8ff#\J	.	.	.	.	.	8dd\J	.	8ff#\J	.
16A`\LL	.	.	.	2dd\	.	2ff#\	.	.	.	.	.	2dd\	.	2ff#\	.
(16G\	.	.	.	.	.	.	.	.	.	.	.	.	.	.	.
16F#\	.	.	.	.	.	.	.	.	.	.	.	.	.	.	.
16E\JJ)	.	.	.	.	.	.	.	.	.	.	.	.	.	.	.
4D`\	.	4A/	.	.	.	.	.	.	.	.	.	.	.	.	.
=13	=13	=13	=13	=13	=13	=13	=13	=13	=13	=13	=13	=13	=13	=13	=13
*	*	*	*	*Xtuplet	*	*Xtuplet	*	*	*	*	*	*	*	*	*
!	!	!	!	!	!	!	!	!LO:TX:a:t=2	!	!LO:TX:a:t=2	!	!LO:TX:a:t=2	!	!LO:TX:a:t=2	!
!	!LO:DY:t=p:	!	!LO:DY:t=p	!	!	!	!LO:DY:t=pia:	!LO:N:vis=0	!	!LO:N:vis=0	!	!LO:N:vis=0	!	!LO:N:vis=0	!
2.G\	p	2B/	p	12e/L	p	12ee\L	p	1.r	.	1.r	.	1.r	.	1.r	.
.	.	.	.	12d#X/	.	12dd#X\	.	.	.	.	.	.	.	.	.
.	.	.	.	12e/J	.	12ee\J	.	.	.	.	.	.	.	.	.
!	!	!	!	!LO:LB:g=original	!	!	!	!	!	!	!	!	!	!	!
.	.	.	.	12gn/L	.	12ggn\L	.	.	.	.	.	.	.	.	.
.	.	.	.	12f#/	.	12ff#\	.	.	.	.	.	.	.	.	.
.	.	.	.	12e/J	.	12ee\J	.	.	.	.	.	.	.	.	.
!	!	!	!	!	!	!LO:LB:g=original	!	!	!	!	!	!	!	!	!
.	.	4e\	.	12b/L	.	12bb\L	.	.	.	.	.	.	.	.	.
.	.	.	.	12g/	.	12ggn\	.	.	.	.	.	.	.	.	.
.	.	.	.	12e/J	.	12ee\J	.	.	.	.	.	.	.	.	.
=14	=14	=14	=14	=14	=14	=14	=14	=14	=14	=14	=14	=14	=14	=14	=14
(4A\	.	2e\	.	(4d/	.	(4dd\	.	.	.	.	.	.	.	.	.
4G\)	.	.	.	4c#X/)	.	4cc#X\)	.	.	.	.	.	.	.	.	.
4F#`\	.	4f#\	.	4d`/	.	4dd`\	.	.	.	.	.	.	.	.	.
=15	=15	=15	=15	=15	=15	=15	=15	=15	=15	=15	=15	=15	=15	=15	=15
!	!	!	!LO:DY:t=p	!	!	!	!	!	!	!	!	!	!	!	!
2C#X/	.	(2a\	p	8e/L	.	8ee\L	.	4r	.	4r	.	4r	.	4r	.
.	.	.	.	8f#/J	.	8ff#\J	.	.	.	.	.	.	.	.	.
.	.	.	.	8qqa/	.	8qqaa/	.	.	.	.	.	.	.	.	.
!	!	!	!	!	!	!	!	!	!LO:DY:t=p:	!	!	!	!	!	!
.	.	.	.	4g/	.	4gg\	.	(4a'/	p	4aa\	p	4ee\	p	4ggn\	p
4D/	.	4a\	.	4f#/	.	4ff#\	.	4a'/)	.	4aa\	.	4dd\	.	4ff#\	.
=16	=16	=16	=16	=16	=16	=16	=16	=16	=16	=16	=16	=16	=16	=16	=16
!LO:TX:t=P:problem=mixed beam	!	!	!	!	!	!	!	!	!	!	!	!	!	!	!
.	.	.	.	.	.	8qqgg/	.	.	.	.	.	8qqee/	.	8qqgg/	.
8A\L	.	2dd\	.	2f#/	.	2ff#\	.	2.a/	.	2.aa\	.	2dd\	.	2ff#\	.
8AA/	.	.	.	.	.	.	.	.	.	.	.	.	.	.	.
8A\	.	.	.	.	.	.	.	.	.	.	.	.	.	.	.
8G\	.	.	.	.	.	.	.	.	.	.	.	.	.	.	.
8F#\	.	4cc#X\)	.	4e/	.	4ee\	.	.	.	.	.	4cc#\	.	4ee\	.
8E\J	.	.	.	.	.	.	.	.	.	.	.	.	.	.	.
!	!	!LO:LB:g=original	!	!	!	!	!	!	!	!	!	!	!	!LO:LB:g=original	!
=17	=17	=17	=17	=17	=17	=17	=17	=17	=17	=17	=17	=17	=17	=17	=17
!	!	!	!	!	!LO:DY:t=fortis	!	!LO:DY:t=for:	!	!	!	!	!	!	!	!
4D\	f	4r	f	4r	ff	(16aa\LL	f	4r	.	4r	.	4r	.	4r	.
.	.	.	.	.	.	16gg\	.	.	.	.	.	.	.	.	.
.	.	.	.	.	.	16ff#\	.	.	.	.	.	.	.	.	.
.	.	.	.	.	.	16ee\JJ)	.	.	.	.	.	.	.	.	.
4F#\	.	4f#\	.	(16a/LL	.	4dd`\	.	4d/	f	4dd\	f	4f#/	f	4dd\	f
.	.	.	.	16g/	.	.	.	.	.	.	.	.	.	.	.
.	.	.	.	16f#/	.	.	.	.	.	.	.	.	.	.	.
.	.	.	.	16e/JJ)	.	.	.	.	.	.	.	.	.	.	.
4D\	.	4d\	.	4d`/	.	4dd`\	.	4d/	.	4dd\	.	4f#/	.	4dd\	.
!LO:LB:g=original	!	!	!	!	!	!	!	!	!	!	!	!LO:LB:g=original	!	!	!
=18	=18	=18	=18	=18	=18	=18	=18	=18	=18	=18	=18	=18	=18	=18	=18
.	.	.	.	.	.	.	.	.	.	.	.	8qqg/	.	8qqee/	.
4A\	.	2a\	.	(8f#/L	.	8dd\L	.	4A/	.	4a/	.	8f#/L	.	8dd\L	.
.	.	.	.	8e/J)	.	8cc#X\J	.	.	.	.	.	8e/J	.	8cc#X\J	.
(16E\LL	.	.	.	2e/	.	2cc#\	.	4A/	.	4a/	.	2e/	.	2cc#\	.
16D\	.	.	.	.	.	.	.	.	.	.	.	.	.	.	.
16C#\	.	.	.	.	.	.	.	.	.	.	.	.	.	.	.
16BB\JJ)	.	.	.	.	.	.	.	.	.	.	.	.	.	.	.
4AA`/	.	4A/	.	.	.	.	.	4r	.	4r	.	.	.	.	.
=19	=19	=19	=19	=19	=19	=19	=19	=19	=19	=19	=19	=19	=19	=19	=19
4r	.	4r	.	(8c#/L	.	16ee\LL	.	4r	.	4r	.	4r	.	4r	.
.	.	.	.	.	.	16dd\	.	.	.	.	.	.	.	.	.
.	.	.	.	8e/	.	16cc#\	.	.	.	.	.	.	.	.	.
.	.	.	.	.	.	16b\JJ	.	.	.	.	.	.	.	.	.
4AA/	.	(16e\LL	.	8a/	.	4a/	.	4A/	.	4a/	.	4ee\	.	4gg\	.
.	.	16d\	.	.	.	.	.	.	.	.	.	.	.	.	.
.	.	16c#\	.	8e/	.	.	.	.	.	.	.	.	.	.	.
.	.	16B\JJ)	.	.	.	.	.	.	.	.	.	.	.	.	.
4C#/	.	4A`/	.	8a/	.	4ggn\	.	4A/	.	4a/	.	4ee\	.	4gg\	.
.	.	.	.	8e/J)	.	.	.	.	.	.	.	.	.	.	.
=20	=20	=20	=20	=20	=20	=20	=20	=20	=20	=20	=20	=20	=20	=20	=20
.	.	.	.	.	.	8qqaa/	.	.	.	.	.	8qqff#/	.	8qqaa/	.
4D/	.	4r	.	(8e/L	.	8gg\L	.	4d/	.	4dd\	.	8ee\L	.	8gg\L	.
.	.	.	.	8d/	.	8ff#\J	.	.	.	.	.	8dd\J	.	8ff#\J	.
4AA/	.	(16a\LL	.	8f#/	.	2ff#\	.	4d/	.	4dd\	.	2dd`\	.	2ff#\	.
.	.	16g\	.	.	.	.	.	.	.	.	.	.	.	.	.
.	.	16f#\	.	8d/	.	.	.	.	.	.	.	.	.	.	.
.	.	16e\JJ)	.	.	.	.	.	.	.	.	.	.	.	.	.
4DD/	.	4d`\	.	8f#/	.	.	.	4r	.	4r	.	.	.	.	.
.	.	.	.	8d/J)	.	.	.	.	.	.	.	.	.	.	.
!	!	!	!	!LO:LB:g=original	!	!LO:LB:g=original	!	!	!	!	!	!	!	!	!
=21	=21	=21	=21	=21	=21	=21	=21	=21	=21	=21	=21	=21	=21	=21	=21
4r	.	4r	.	4r	.	(16aa\LL	.	4r	.	4r	.	4r	.	4r	.
.	.	.	.	.	.	16gg\	.	.	.	.	.	.	.	.	.
.	.	.	.	.	.	16ff#\	.	.	.	.	.	.	.	.	.
.	.	.	.	.	.	16ee'\JJ)	.	.	.	.	.	.	.	.	.
4F#\	.	4d\	.	(16a/LL	.	4dd\	.	4d/	.	4dd\	.	4dd\	.	4aa\	.
.	.	.	.	16g/	.	.	.	.	.	.	.	.	.	.	.
.	.	.	.	16f#/	.	.	.	.	.	.	.	.	.	.	.
.	.	.	.	16e/JJ)	.	.	.	.	.	.	.	.	.	.	.
4F#\	.	4d\	.	4d`/	.	4dd\	.	4d/	.	4dd\	.	4dd\	.	4aa\	.
!	!	!	!	!	!	!	!	!LO:LB:g=original	!	!LO:LB:g=original	!	!	!	!	!
=22	=22	=22	=22	=22	=22	=22	=22	=22	=22	=22	=22	=22	=22	=22	=22
4r	.	4r	.	4r	.	(16bb\LL	.	4r	.	4r	.	4r	.	4r	.
.	.	.	.	.	.	16aa\	.	.	.	.	.	.	.	.	.
.	.	.	.	.	.	16gg\	.	.	.	.	.	.	.	.	.
.	.	.	.	.	.	16ff#\JJ)	.	.	.	.	.	.	.	.	.
4G\	.	4d\	.	16b/LL	.	4ee`\	.	4d/	.	4dd\	.	4dd\	.	4bb\	.
.	.	.	.	16a/	.	.	.	.	.	.	.	.	.	.	.
.	.	.	.	16gn/	.	.	.	.	.	.	.	.	.	.	.
.	.	.	.	16f#/JJ	.	.	.	.	.	.	.	.	.	.	.
4G#X\	.	4d\	.	4e/	.	4ee`\	.	4d/	.	4dd\	.	4dd\	.	4bb\	.
=23	=23	=23	=23	=23	=23	=23	=23	=23	=23	=23	=23	=23	=23	=23	=23
4r	.	4r	.	4r	.	16gg\LL	.	4r	.	4r	.	4r	.	4r	.
.	.	.	.	.	.	16ff#\	.	.	.	.	.	.	.	.	.
.	.	.	.	.	.	16ee\	.	.	.	.	.	.	.	.	.
.	.	.	.	.	.	16dd\JJ	.	.	.	.	.	.	.	.	.
4A\	.	16e\LL	.	4A/ 4e	.	4cc#X\	.	4ee\	.	4ee\	.	4ee\	.	4gg\	.
.	.	16d\	.	.	.	.	.	.	.	.	.	.	.	.	.
.	.	16c#\	.	.	.	.	.	.	.	.	.	.	.	.	.
.	.	16B\JJ	.	.	.	.	.	.	.	.	.	.	.	.	.
4AA/	.	4A/	.	4A/ 4e	.	4cc#\	.	4ee\	.	4ee\	.	4ee\	.	4gg'\	.
=24	=24	=24	=24	=24	=24	=24	=24	=24	=24	=24	=24	=24	=24	=24	=24
4D\	.	2A/	.	2e/	.	2cc#\	.	2a/	.	2ee\	.	2ee\	.	2gg\	.
16A\LL	.	.	.	.	.	.	.	.	.	.	.	.	.	.	.
16Gni\	.	.	.	.	.	.	.	.	.	.	.	.	.	.	.
16F#\	.	.	.	.	.	.	.	.	.	.	.	.	.	.	.
16E\JJ	.	.	.	.	.	.	.	.	.	.	.	.	.	.	.
4D\	.	4d\	.	4f#/	.	4dd\	.	4dd\	.	4ff#\	.	4dd\	.	4ff#X\	.
!LO:LB:g=original	!	!LO:LB:g=original	!	!LO:LB:g=original	!	!LO:LB:g=original	!	!	!	!	!	!LO:LB:g=original	!	!LO:LB:g=original	!
=25:|!	=25:|!	=25:|!	=25:|!	=25:|!	=25:|!	=25:|!	=25:|!	=25:|!	=25:|!	=25:|!	=25:|!	=25:|!	=25:|!	=25:|!	=25:|!
*>C	*	*>C	*	*>C	*	*>C	*	*>C	*	*>C	*	*>C	*	*>C	*
*k[f#]	*	*k[f#]	*	*k[f#]	*	*k[f#]	*	*k[f#]	*	*k[f#]	*	*k[f#]	*	*k[f#]	*
!LO:TX:a:B:t=Trio	!LO:DY:t=p	!LO:TX:a:B:t=Trio	!	!LO:TX:a:B:t=Trio	!	!LO:TX:a:B:t=Trio	!	!LO:TX:a:B:t=Trio Tace Manuetto Da Capo	!	!LO:TX:a:B:t=Trio Tace Manuetto Da Capo	!	!LO:TX:a:B:t=Trio Tace Manuetto Da Capo	!	!LO:TX:a:B:t=Trio	!
4GG/	p	4G/	pp	(8B/L	pp	2d/	p	2.ryy	.	2.ryy	.	2.ryy	.	2dd\	.
.	.	.	.	8d/	.	.	.	.	.	.	.	.	.	.	.
4BB/	.	4B/	.	8B/	.	.	.	.	.	.	.	.	.	.	.
.	.	.	.	8d/	.	.	.	.	.	.	.	.	.	.	.
!	!	!	!	!	!	!	!	!	!	!	!	!	!	!LO:TX:a:t=Solo	!
4GG/	.	4G/	.	8B/	.	4g/	.	.	.	.	.	.	.	4gg\	.
.	.	.	.	8d/J)	.	.	.	.	.	.	.	.	.	.	.
=26	=26	=26	=26	=26	=26	=26	=26	=26	=26	=26	=26	=26	=26	=26	=26
4D\	.	4d\	.	(8B/L	.	(4g/	.	2.ryy	.	2.ryy	.	2.ryy	.	4gg\	.
.	.	.	.	8d/	.	.	.	.	.	.	.	.	.	.	.
!	!	!	!	!	!	!	!	!	!	!	!	!	!	!LO:TX:a:t=t	!
4DD/	.	4c\	.	8A/	.	4f#X/)	.	.	.	.	.	.	.	4ff#X\	.
.	.	.	.	8d/	.	.	.	.	.	.	.	.	.	.	.
4GG/	.	4B\	.	8B/	.	4g`/	.	.	.	.	.	.	.	4gg\	.
.	.	.	.	8d/J)	.	.	.	.	.	.	.	.	.	.	.
=27	=27	=27	=27	=27	=27	=27	=27	=27	=27	=27	=27	=27	=27	=27	=27
4r	.	4r	.	(8f#X/L	.	8a/L	.	2.ryy	.	2.ryy	.	2.ryy	.	8aa\L	.
.	.	.	.	8g/	.	8b/J	.	.	.	.	.	.	.	8bb\J	.
4D\	.	4d\	.	8a/	.	4cc/	.	.	.	.	.	.	.	4cccn\	.
.	.	.	.	8d/	.	.	.	.	.	.	.	.	.	.	.
4F#\	.	4d\	.	8a/	.	4cc/	.	.	.	.	.	.	.	4ccc\	.
.	.	.	.	8d/J)	.	.	.	.	.	.	.	.	.	.	.
=28	=28	=28	=28	=28	=28	=28	=28	=28	=28	=28	=28	=28	=28	=28	=28
4G\	.	2.d\	.	(8a/L	.	(4cc/	.	2.ryy	.	2.ryy	.	2.ryy	.	4ccc\	.
.	.	.	.	8d/	.	.	.	.	.	.	.	.	.	.	.
4GG/	.	.	.	8g/	.	4b/	.	.	.	.	.	.	.	4bb\	.
.	.	.	.	8d/	.	.	.	.	.	.	.	.	.	.	.
4D/	.	.	.	8f#/	.	4a/)	.	.	.	.	.	.	.	4aa\	.
.	.	.	.	8d/J)	.	.	.	.	.	.	.	.	.	.	.
=29	=29	=29	=29	=29	=29	=29	=29	=29	=29	=29	=29	=29	=29	=29	=29
4GG/	.	4G/	.	(8g/L	.	2d/	.	2.ryy	.	2.ryy	.	2.ryy	.	2dd\	.
.	.	.	.	8d/	.	.	.	.	.	.	.	.	.	.	.
4BB/	.	4B/	.	8B/	.	.	.	.	.	.	.	.	.	.	.
.	.	.	.	8d/	.	.	.	.	.	.	.	.	.	.	.
4GG/	.	4G/	.	8B/	.	4g/	.	.	.	.	.	.	.	4gg\	.
.	.	.	.	8d/J)	.	.	.	.	.	.	.	.	.	.	.
=30	=30	=30	=30	=30	=30	=30	=30	=30	=30	=30	=30	=30	=30	=30	=30
4D\	.	4d\	.	(8B/L	.	4g/	.	2.ryy	.	2.ryy	.	2.ryy	.	(4gg\	.
.	.	.	.	8d/	.	.	.	.	.	.	.	.	.	.	.
4DD/	.	4c\	.	8A/	.	4f#X/	.	.	.	.	.	.	.	4ff#\)	.
.	.	.	.	8d/	.	.	.	.	.	.	.	.	.	.	.
4GG/	.	4B\	.	8B/	.	8.g/L	.	.	.	.	.	.	.	8.gg\L	.
.	.	.	.	8g/J)	.	.	.	.	.	.	.	.	.	.	.
.	.	.	.	.	.	16b/Jk	.	.	.	.	.	.	.	16bb\Jk	.
!	!	!	!	!LO:LB:g=original	!	!	!	!	!	!	!	!	!	!LO:LB:g=original	!
=31	=31	=31	=31	=31	=31	=31	=31	=31	=31	=31	=31	=31	=31	=31	=31
8FF#X/L	.	8A/L	.	(8f#/L	.	(8a/L	.	2.ryy	.	2.ryy	.	2.ryy	.	8.aa\L	.
8GG/J	.	8B/J	.	8g/	.	8g/J)	.	.	.	.	.	.	.	.	.
.	.	.	.	.	.	.	.	.	.	.	.	.	.	16gg\Jk	.
4AA/	.	4A/	.	8a/	.	4f#/	.	.	.	.	.	.	.	4ff#\	.
.	.	.	.	8f#/	.	.	.	.	.	.	.	.	.	.	.
4AA/	.	4A/	.	8g/	.	4e/	.	.	.	.	.	.	.	4ee\	.
.	.	.	.	8A/J)	.	.	.	.	.	.	.	.	.	.	.
=32	=32	=32	=32	=32	=32	=32	=32	=32	=32	=32	=32	=32	=32	=32	=32
.	.	.	.	.	.	8qqe/	.	.	.	.	.	.	.	8qqee/	.
4D/	.	2.A/	.	8f#/L	.	2.d/	.	2.ryy	.	2.ryy	.	2.ryy	.	2.dd\	.
.	.	.	.	8a/	.	.	.	.	.	.	.	.	.	.	.
4AA/	.	.	.	8f#/	.	.	.	.	.	.	.	.	.	.	.
.	.	.	.	8a/J	.	.	.	.	.	.	.	.	.	.	.
4DD/	.	.	.	4f#/	.	.	.	.	.	.	.	.	.	.	.
!	!	!	!	!	!	!LO:LB:g=original	!	!	!	!	!	!	!	!	!
=33:|!|:	=33:|!|:	=33:|!|:	=33:|!|:	=33:|!|:	=33:|!|:	=33:|!|:	=33:|!|:	=33:|!|:	=33:|!|:	=33:|!|:	=33:|!|:	=33:|!|:	=33:|!|:	=33:|!|:	=33:|!|:
*>D	*	*>D	*	*>D	*	*>D	*	*>D	*	*>D	*	*>D	*	*>D	*
!	!	!	!	!	!	!	!	!	!	!	!	!	!	!LO:TX:a:t=4	!
!	!	!	!	!	!	!	!	!	!	!	!	!	!	!LO:N:vis=00	!
4r	.	4r	.	4b\	<	4dd\	.	2.ryy	.	2.ryy	.	2.ryy	.	0.r	.
4r	.	4r	.	8a/L	.	(8ccn\L	.	.	.	.	.	.	.	.	.
.	.	.	.	8g#X/	.	8b\	.	.	.	.	.	.	.	.	.
4E\	.	4e\	.	8a/	.	8cc\	.	.	.	.	.	.	.	.	.
.	.	.	.	8b/J	.	8dd\J)	.	.	.	.	.	.	.	.	.
!LO:LB:g=original	!	!LO:LB:g=original	!	!	!	!	!	!	!	!	!	!	!	!	!
=34	=34	=34	=34	=34	=34	=34	=34	=34	=34	=34	=34	=34	=34	=34	=34
4A\	.	2.e\	.	(2b\	.	2dd\	.	2.ryy	.	2.ryy	.	2.ryy	.	.	.
4E\	.	.	.	.	.	.	.	.	.	.	.	.	.	.	.
4AA/	.	.	.	4a\)	.	4cc\	.	.	.	.	.	.	.	.	.
=35	=35	=35	=35	=35	=35	=35	=35	=35	=35	=35	=35	=35	=35	=35	=35
4r	.	4r	.	4a/	.	4cc\	.	2.ryy	.	2.ryy	.	2.ryy	.	.	.
4r	.	4r	.	8g/L	.	8b\L	.	.	.	.	.	.	.	.	.
.	.	.	.	8f#/	.	8a\	.	.	.	.	.	.	.	.	.
4D\	.	4d\	.	8g/	.	8b\	.	.	.	.	.	.	.	.	.
.	.	.	.	8a/J	.	8cc\J	.	.	.	.	.	.	.	.	.
=36	=36	=36	=36	=36	=36	=36	=36	=36	=36	=36	=36	=36	=36	=36	=36
4G\	.	2.d\	.	2a/	.	2cc\	.	2.ryy	.	2.ryy	.	2.ryy	.	.	.
4D\	.	.	.	.	.	.	.	.	.	.	.	.	.	.	.
4GG/	.	.	.	4g/	.	4b\	.	.	.	.	.	.	.	.	.
=37	=37	=37	=37	=37	=37	=37	=37	=37	=37	=37	=37	=37	=37	=37	=37
!	!	!	!	!	!LO:DY:t=p	!	!	!	!	!	!	!	!	!	!
4r	.	4r	.	(8B/L	p	2d/	p	2.ryy	.	2.ryy	.	2.ryy	.	2dd\	.
.	.	.	.	8d/	.	.	.	.	.	.	.	.	.	.	.
4BB/	.	4B/	.	8B/	.	.	.	.	.	.	.	.	.	.	.
.	.	.	.	8d/	.	.	.	.	.	.	.	.	.	.	.
4GG/	.	4G/	.	8B/	.	4g/	.	.	.	.	.	.	.	4gg\	.
.	.	.	.	8d/J)	.	.	.	.	.	.	.	.	.	.	.
=38	=38	=38	=38	=38	=38	=38	=38	=38	=38	=38	=38	=38	=38	=38	=38
4D\	.	2d\	.	(8B/L	.	4g/	.	2.ryy	.	2.ryy	.	2.ryy	.	4gg\	.
.	.	.	.	8d/	.	.	.	.	.	.	.	.	.	.	.
4Cn/	.	.	.	8A/	.	4f#X/	.	.	.	.	.	.	.	4ff#X\	.
.	.	.	.	8d/	.	.	.	.	.	.	.	.	.	.	.
4BB/	.	4d\	.	8B/	.	4g/	.	.	.	.	.	.	.	4gg\	.
.	.	.	.	8d/J)	.	.	.	.	.	.	.	.	.	.	.
!	!	!	!	!LO:LB:g=original	!	!	!	!	!	!	!	!	!	!	!
=39	=39	=39	=39	=39	=39	=39	=39	=39	=39	=39	=39	=39	=39	=39	=39
4r	.	4r	.	(8f#/L	.	8a/L	.	2.ryy	.	2.ryy	.	2.ryy	.	8aa\L	.
.	.	.	.	8g/	.	8b/J	.	.	.	.	.	.	.	8bb\J	.
4F#\	.	4d\	.	8a/	.	4cc\	.	.	.	.	.	.	.	4ccc\	.
.	.	.	.	8d/	.	.	.	.	.	.	.	.	.	.	.
4D\	.	4f#\	.	8a/	.	4cc\	.	.	.	.	.	.	.	4ccc\	.
.	.	.	.	8d/J)	.	.	.	.	.	.	.	.	.	.	.
=40	=40	=40	=40	=40	=40	=40	=40	=40	=40	=40	=40	=40	=40	=40	=40
4G\	.	4g\	.	(8a/L	.	4cc\	.	2.ryy	.	2.ryy	.	2.ryy	.	(4ccc\	.
.	.	.	.	8d/	.	.	.	.	.	.	.	.	.	.	.
!	!	!	!	!	!	!LO:TX:a:t=t	!	!	!	!	!	!	!	!	!
4D\	.	(4d\	.	8g/	.	4b\	.	.	.	.	.	.	.	4bb\)	.
.	.	.	.	8d/	.	.	.	.	.	.	.	.	.	.	.
4DD/	.	4c\)	.	8f#/	.	4a/	.	.	.	.	.	.	.	4aa`\	.
.	.	.	.	8d/J)	.	.	.	.	.	.	.	.	.	.	.
!	!	!	!	!	!	!LO:LB:g=original	!	!	!	!	!	!	!	!	!
=41	=41	=41	=41	=41	=41	=41	=41	=41	=41	=41	=41	=41	=41	=41	=41
4r	.	4r	.	(8g/L	.	2d/	.	2.ryy	.	2.ryy	.	2.ryy	.	2dd\	.
.	.	.	.	8d/	.	.	.	.	.	.	.	.	.	.	.
4GG/	.	4B/	.	8B/	.	.	.	.	.	.	.	.	.	.	.
.	.	.	.	8d/	.	.	.	.	.	.	.	.	.	.	.
4BB/	.	4G/	.	8B/	.	4g/	.	.	.	.	.	.	.	4gg\	.
.	.	.	.	8d/J)	.	.	.	.	.	.	.	.	.	.	.
!	!	!	!	!	!	!	!	!	!	!	!	!	!	!LO:LB:g=original	!
=42	=42	=42	=42	=42	=42	=42	=42	=42	=42	=42	=42	=42	=42	=42	=42
4D\	.	(4d\	.	(8B/L	.	4g/	.	2.ryy	.	2.ryy	.	2.ryy	.	4gg\	.
.	.	.	.	8d/	.	.	.	.	.	.	.	.	.	.	.
4DD/	.	4c\	.	8A/	.	4f#X/	.	.	.	.	.	.	.	4ff#\	.
.	.	.	.	8d/	.	.	.	.	.	.	.	.	.	.	.
4GG/	.	4B\)	.	8B/	.	8.g/L	.	.	.	.	.	.	.	8.gg\L	.
.	.	.	.	8g/J)	.	.	.	.	.	.	.	.	.	.	.
.	.	.	.	.	.	16b/Jk	.	.	.	.	.	.	.	16bb\Jk	.
=43	=43	=43	=43	=43	=43	=43	=43	=43	=43	=43	=43	=43	=43	=43	=43
4C/	.	4c\	.	(8e/L	.	16b\LL	.	2.ryy	.	2.ryy	.	2.ryy	.	16bb\LL	.
.	.	.	.	.	.	16a\	.	.	.	.	.	.	.	16aa\	.
.	.	.	.	8a/	.	16cc\	.	.	.	.	.	.	.	16ccc\	.
.	.	.	.	.	.	16a\JJ	.	.	.	.	.	.	.	16aa\JJ	.
4D/	.	4d\	.	8d/	.	4g/	.	.	.	.	.	.	.	4gg\	.
.	.	.	.	8g/	.	.	.	.	.	.	.	.	.	.	.
4DD/	.	4d\	.	8c/	.	4f#X/	.	.	.	.	.	.	.	4ff#\	.
.	.	.	.	8d/J)	.	.	.	.	.	.	.	.	.	.	.
=44	=44	=44	=44	=44	=44	=44	=44	=44	=44	=44	=44	=44	=44	=44	=44
4GG/	.	2.d\	.	8c/L	.	2f#/	.	2.ryy	.	2.ryy	.	2.ryy	.	2ff#\	.
.	.	.	.	8d/	.	.	.	.	.	.	.	.	.	.	.
4D/	.	.	.	8c/	.	.	.	.	.	.	.	.	.	.	.
.	.	.	.	8d/J	.	.	.	.	.	.	.	.	.	.	.
!LO:TX:a:t=Menuetto Da Capo	!	!LO:TX:a:t=Menuetto Da Capo	!	!LO:TX:a:t=Menuetto Da Capo	!	!LO:TX:a:t=Vol: Sub	!	!	!	!	!	!	!	!LO:TX:a:t=Menuetto Da Capo	!
4G\	.	.	.	4B/	.	4g/	.	.	.	.	.	.	.	4gg\	.
=:|!	=:|!	=:|!	=:|!	=:|!	=:|!	=:|!	=:|!	=:|!	=:|!	=:|!	=:|!	=:|!	=:|!	=:|!	=:|!
*-	*-	*-	*-	*-	*-	*-	*-	*-	*-	*-	*-	*-	*-	*-	*-
!!!system-decoration: [(g1)][(g2)][(g3)]
!!!RDF**kern: i = editorial accidental
!!!RDF**kern: >= above
!!!RDF**kern: <= below
!!!RDF**dynam: f=for
!!!RDF**dynam: p=pia
!!!RDF**dynam: cresc. = cres.
!!!ENC: Anna Matuszewska
!!!END: 2020-07-13
